svg/color/acxt.svg

<?xml version="1.0" encoding="UTF-8" ?>
<!DOCTYPE svg PUBLIC "-//W3C//DTD SVG 1.1//EN" "http://www.w3.org/Graphics/SVG/1.1/DTD/svg11.dtd">
<svg width="250pt" height="222pt" viewBox="0 0 250 222" version="1.1" xmlns="http://www.w3.org/2000/svg">
<g id="#ffffffff">
<path fill="#ffffff" opacity="1.00" d=" M 0.00 0.00 L 129.61 0.00 C 104.81 55.42 80.23 110.95 55.42 166.38 C 66.79 166.48 78.16 166.31 89.52 166.46 C 108.85 123.68 127.75 80.70 146.93 37.85 C 152.48 25.22 158.27 12.69 163.68 0.00 L 250.00 0.00 L 250.00 55.49 C 238.58 55.43 227.16 55.39 215.74 55.51 C 199.33 92.48 182.81 129.40 166.40 166.37 C 177.72 166.50 189.04 166.31 200.37 166.47 C 215.44 133.62 229.84 100.44 244.66 67.46 C 246.39 63.76 247.72 59.84 250.00 56.41 L 250.00 222.00 L 120.33 222.00 C 145.15 166.53 169.73 110.95 194.59 55.49 C 183.16 55.40 171.74 55.46 160.32 55.46 C 135.62 110.92 110.94 166.38 86.21 221.82 C 97.52 222.03 108.83 221.68 120.14 222.00 L 0.00 222.00 L 0.00 0.00 M 49.43 55.44 C 33.57 90.98 17.78 126.54 1.92 162.07 C 1.20 163.40 1.00 164.90 0.93 166.40 C 12.02 166.42 23.10 166.39 34.19 166.41 C 50.74 129.47 67.05 92.43 83.68 55.53 C 72.26 55.34 60.85 55.51 49.43 55.44 Z" />
</g>
<g id="#008072ff">
<path fill="#008072" opacity="1.00" d=" M 129.61 0.00 L 163.68 0.00 C 158.27 12.69 152.48 25.22 146.93 37.85 C 127.75 80.70 108.85 123.68 89.52 166.46 C 78.16 166.31 66.79 166.48 55.42 166.38 C 80.23 110.95 104.81 55.42 129.61 0.00 Z" />
</g>
<g id="#183a4dff">
<path fill="#183a4d" opacity="1.00" d=" M 49.43 55.44 C 60.85 55.51 72.26 55.34 83.68 55.53 C 67.05 92.43 50.74 129.47 34.19 166.41 C 23.10 166.39 12.02 166.42 0.93 166.40 C 1.00 164.90 1.20 163.40 1.92 162.07 C 17.78 126.54 33.57 90.98 49.43 55.44 Z" />
</g>
<g id="#03b26fff">
<path fill="#03b26f" opacity="1.00" d=" M 160.32 55.46 C 171.74 55.46 183.16 55.40 194.59 55.49 C 169.73 110.95 145.15 166.53 120.33 222.00 L 120.14 222.00 C 108.83 221.68 97.52 222.03 86.21 221.82 C 110.94 166.38 135.62 110.92 160.32 55.46 Z" />
</g>
<g id="#aad16aff">
<path fill="#aad16a" opacity="1.00" d=" M 215.74 55.51 C 227.16 55.39 238.58 55.43 250.00 55.49 L 250.00 56.41 C 247.72 59.84 246.39 63.76 244.66 67.46 C 229.84 100.44 215.44 133.62 200.37 166.47 C 189.04 166.31 177.72 166.50 166.40 166.37 C 182.81 129.40 199.33 92.48 215.74 55.51 Z" />
</g>
</svg>

<?xml version="1.0" encoding="utf-8"?>
<!-- Generator: Adobe Illustrator 26.0.3, SVG Export Plug-In . SVG Version: 6.00 Build 0)  -->
<svg version="1.1" id="Layer_1" xmlns="http://www.w3.org/2000/svg" xmlns:xlink="http://www.w3.org/1999/xlink" x="0px" y="0px"
	 viewBox="0 0 250 222" style="enable-background:new 0 0 250 222;" xml:space="preserve">
<style type="text/css">
	.st0{fill:#008072;}
	.st1{fill:#183A4D;}
	.st2{fill:#03B26F;}
	.st3{fill:#AAD16A;}
</style>
<g id="_x23_008072ff">
	<path class="st0" d="M129.6,0h34.1c-5.4,12.7-11.2,25.2-16.8,37.8c-19.2,42.8-38.1,85.8-57.4,128.6c-11.4-0.2-22.7,0-34.1-0.1
		C80.2,110.9,104.8,55.4,129.6,0z"/>
</g>
<g id="_x23_183a4dff">
	<path class="st1" d="M49.4,55.4c11.4,0.1,22.8-0.1,34.2,0.1c-16.6,36.9-32.9,73.9-49.5,110.9c-11.1,0-22.2,0-33.3,0
		c0.1-1.5,0.3-3,1-4.3C17.8,126.5,33.6,91,49.4,55.4z"/>
</g>
<g id="_x23_03b26fff">
	<path class="st2" d="M160.3,55.5c11.4,0,22.8-0.1,34.3,0c-24.9,55.5-49.4,111-74.3,166.5h-0.2c-11.3-0.3-22.6,0-33.9-0.2
		C110.9,166.4,135.6,110.9,160.3,55.5z"/>
</g>
<g id="_x23_aad16aff">
	<path class="st3" d="M215.7,55.5c11.4-0.1,22.8-0.1,34.3,0v0.9c-2.3,3.4-3.6,7.3-5.3,11c-14.8,33-29.2,66.2-44.3,99
		c-11.3-0.2-22.6,0-34-0.1C182.8,129.4,199.3,92.5,215.7,55.5z"/>
</g>
</svg>
